svg/cylinder.svg

<svg xmlns="http://www.w3.org/2000/svg" viewBox="0 0 24 24"><path d="M12 2c-2.11 0-9 .29-9 4v12c0 3.71 6.89 4 9 4s9-.29 9-4V6c0-3.71-6.89-4-9-4m0 8c1.38 0 4.8-.13 7-1.25v6.5C16.8 14.13 13.38 14 12 14s-4.8.13-7 1.25v-6.5C7.2 9.87 10.62 10 12 10m0-6c3.87 0 7 .89 7 2s-3.13 2-7 2-7-.89-7-2 3.13-2 7-2m0 16c-3.87 0-7-.89-7-2 0-1.1 3.13-2 7-2s7 .9 7 2c0 1.11-3.13 2-7 2"/></svg>

<svg xmlns="http://www.w3.org/2000/svg" id="mdi-cylinder" viewBox="0 0 24 24"><path d="M12 2C9.89 2 3 2.29 3 6V18C3 21.71 9.89 22 12 22C14.11 22 21 21.71 21 18V6C21 2.29 14.11 2 12 2M12 10C13.38 10 16.8 9.87 19 8.75V15.25C16.8 14.13 13.38 14 12 14S7.2 14.13 5 15.25V8.75C7.2 9.87 10.62 10 12 10M12 4C15.87 4 19 4.89 19 6C19 7.11 15.87 8 12 8C8.13 8 5 7.11 5 6C5 4.89 8.13 4 12 4M12 20C8.13 20 5 19.11 5 18C5 16.9 8.13 16 12 16C15.87 16 19 16.9 19 18C19 19.11 15.87 20 12 20Z" /></svg>
